Increase/img/features/bg-2.svg

<svg width="116" height="62" viewBox="0 0 116 62" fill="none" xmlns="http://www.w3.org/2000/svg">
<path d="M18.3727 19.6111C8.22573 19.6111 0 28.0182 0 38.3889H36.7453C36.7453 28.0182 28.5196 19.6111 18.3727 19.6111Z" fill="#EEF3FF"/>
<path d="M90.4224 36C76.2962 36 64.8447 47.6406 64.8447 62H116C116 47.6406 104.549 36 90.4224 36Z" fill="#E1EAFF"/>
<path d="M51.8758 16C30.3882 16 12.969 33.4609 12.969 55H90.7827C90.7827 33.4609 73.3635 16 51.8758 16Z" fill="#D5E0FB"/>
<path d="M100.5 0C91.9396 0 85 7.16344 85 16H116C116 7.16344 109.06 0 100.5 0Z" fill="#ECF1FC"/>
</svg>

<svg width="116" height="62" fill="none" xmlns="http://www.w3.org/2000/svg"><path d="M18.373 19.611C8.226 19.611 0 28.018 0 38.39h36.745c0-10.37-8.225-18.778-18.372-18.778z" fill="#EEF3FF"/><path d="M90.422 36c-14.126 0-25.577 11.64-25.577 26H116c0-14.36-11.451-26-25.578-26z" fill="#E1EAFF"/><path d="M51.876 16c-21.488 0-38.907 17.46-38.907 39h77.814c0-21.54-17.42-39-38.907-39z" fill="#D5E0FB"/><path d="M100.5 0C91.94 0 85 7.163 85 16h31c0-8.837-6.94-16-15.5-16z" fill="#ECF1FC"/></svg>
